images/global/icons/action/grid-line.svg

<svg id="action-grid-line-Layer_1" xmlns="http://www.w3.org/2000/svg" viewBox="0 0 48 48" enable-background="new 0 0 48 48"><title>icon/Action/grid-line</title><g transform="translate(12 12)"><path id="action-grid-line-a_1_" d="M1.1 9.8h8.7V1.1H1.1v8.7zM0 1.1C0 .5.5 0 1.1 0h8.7c.6 0 1.1.5 1.1 1.1v8.7c0 .6-.5 1.1-1.1 1.1H1.1c-.6 0-1.1-.5-1.1-1.1V1.1zm1.1 21.8h8.7v-8.7H1.1v8.7zM0 14.2c0-.6.5-1.1 1.1-1.1h8.7c.6 0 1.1.5 1.1 1.1v8.7c0 .6-.5 1.1-1.1 1.1H1.1C.5 24 0 23.5 0 22.9v-8.7zm14.2-4.4h8.7V1.1h-8.7v8.7zm-1.1-8.7c0-.6.5-1.1 1.1-1.1h8.7c.6 0 1.1.5 1.1 1.1v8.7c0 .6-.5 1.1-1.1 1.1h-8.7c-.6 0-1.1-.5-1.1-1.1V1.1zm1.1 21.8h8.7v-8.7h-8.7v8.7zm-1.1-8.7c0-.6.5-1.1 1.1-1.1h8.7c.6 0 1.1.5 1.1 1.1v8.7c0 .6-.5 1.1-1.1 1.1h-8.7c-.6 0-1.1-.5-1.1-1.1v-8.7z" fill="#384048"/><defs><filter id="action-grid-line-Adobe_OpacityMaskFilter" filterUnits="userSpaceOnUse" x="-12" y="-12" width="48" height="48"><feColorMatrix values="1 0 0 0 0 0 1 0 0 0 0 0 1 0 0 0 0 0 1 0"/></filter></defs><mask maskUnits="userSpaceOnUse" x="-12" y="-12" width="48" height="48" id="action-grid-line-b"><g filter="url(#action-grid-line-Adobe_OpacityMaskFilter)"><path id="action-grid-line-a" d="M1.1 9.8h8.7V1.1H1.1v8.7zM0 1.1C0 .5.5 0 1.1 0h8.7c.6 0 1.1.5 1.1 1.1v8.7c0 .6-.5 1.1-1.1 1.1H1.1c-.6 0-1.1-.5-1.1-1.1V1.1zm1.1 21.8h8.7v-8.7H1.1v8.7zM0 14.2c0-.6.5-1.1 1.1-1.1h8.7c.6 0 1.1.5 1.1 1.1v8.7c0 .6-.5 1.1-1.1 1.1H1.1C.5 24 0 23.5 0 22.9v-8.7zm14.2-4.4h8.7V1.1h-8.7v8.7zm-1.1-8.7c0-.6.5-1.1 1.1-1.1h8.7c.6 0 1.1.5 1.1 1.1v8.7c0 .6-.5 1.1-1.1 1.1h-8.7c-.6 0-1.1-.5-1.1-1.1V1.1zm1.1 21.8h8.7v-8.7h-8.7v8.7zm-1.1-8.7c0-.6.5-1.1 1.1-1.1h8.7c.6 0 1.1.5 1.1 1.1v8.7c0 .6-.5 1.1-1.1 1.1h-8.7c-.6 0-1.1-.5-1.1-1.1v-8.7z" fill="#fff"/></g></mask><g mask="url(#action-grid-line-b)"><path d="M-12-12h48v48h-48v-48z" fill="#111"/></g></g></svg>

<?xml version="1.0" encoding="utf-8"?>
<!-- Generator: Adobe Illustrator 21.0.2, SVG Export Plug-In . SVG Version: 6.00 Build 0)  -->
<svg version="1.1" id="action-grid-line-Layer_1" xmlns="http://www.w3.org/2000/svg" xmlns:xlink="http://www.w3.org/1999/xlink" x="0px" y="0px"
	 viewBox="0 0 48 48" style="enable-background:new 0 0 48 48;" xml:space="preserve">
<title>icon/Action/grid-line</title>
<g transform="translate(12 12)">
	<g>
		<path id="action-grid-line-a_1_" style="fill:#384048;" d="M1.1,9.8c0,0,8.7,0,8.7,0c0,0,0-8.7,0-8.7c0,0-8.7,0-8.7,0C1.1,1.1,1.1,9.8,1.1,9.8
			L1.1,9.8z M0,1.1C0,0.5,0.5,0,1.1,0h8.7c0.6,0,1.1,0.5,1.1,1.1v8.7c0,0.6-0.5,1.1-1.1,1.1H1.1C0.5,10.9,0,10.4,0,9.8V1.1z
			 M1.1,22.9c0,0,8.7,0,8.7,0c0,0,0-8.7,0-8.7c0,0-8.7,0-8.7,0C1.1,14.2,1.1,22.9,1.1,22.9L1.1,22.9z M0,14.2c0-0.6,0.5-1.1,1.1-1.1
			h8.7c0.6,0,1.1,0.5,1.1,1.1v8.7c0,0.6-0.5,1.1-1.1,1.1H1.1C0.5,24,0,23.5,0,22.9C0,22.9,0,14.2,0,14.2z M14.2,9.8c0,0,8.7,0,8.7,0
			c0,0,0-8.7,0-8.7c0,0-8.7,0-8.7,0C14.2,1.1,14.2,9.8,14.2,9.8z M13.1,1.1c0-0.6,0.5-1.1,1.1-1.1h8.7C23.5,0,24,0.5,24,1.1v8.7
			c0,0.6-0.5,1.1-1.1,1.1h-8.7c-0.6,0-1.1-0.5-1.1-1.1L13.1,1.1L13.1,1.1z M14.2,22.9c0,0,8.7,0,8.7,0c0,0,0-8.7,0-8.7
			c0,0-8.7,0-8.7,0C14.2,14.2,14.2,22.9,14.2,22.9L14.2,22.9z M13.1,14.2c0-0.6,0.5-1.1,1.1-1.1h8.7c0.6,0,1.1,0.5,1.1,1.1v8.7
			c0,0.6-0.5,1.1-1.1,1.1h-8.7c-0.6,0-1.1-0.5-1.1-1.1C13.1,22.9,13.1,14.2,13.1,14.2z"/>
	</g>
	<defs>
		<filter id="action-grid-line-Adobe_OpacityMaskFilter" filterUnits="userSpaceOnUse" x="-12" y="-12" width="48" height="48">
			<feColorMatrix  type="matrix" values="1 0 0 0 0  0 1 0 0 0  0 0 1 0 0  0 0 0 1 0"/>
		</filter>
	</defs>
	<mask maskUnits="userSpaceOnUse" x="-12" y="-12" width="48" height="48" id="action-grid-line-b">
		<g style="filter:url(#action-grid-line-Adobe_OpacityMaskFilter);">
			<path id="action-grid-line-a" style="fill:#FFFFFF;" d="M1.1,9.8c0,0,8.7,0,8.7,0c0,0,0-8.7,0-8.7c0,0-8.7,0-8.7,0C1.1,1.1,1.1,9.8,1.1,9.8
				L1.1,9.8z M0,1.1C0,0.5,0.5,0,1.1,0h8.7c0.6,0,1.1,0.5,1.1,1.1v8.7c0,0.6-0.5,1.1-1.1,1.1H1.1C0.5,10.9,0,10.4,0,9.8V1.1z
				 M1.1,22.9c0,0,8.7,0,8.7,0c0,0,0-8.7,0-8.7c0,0-8.7,0-8.7,0C1.1,14.2,1.1,22.9,1.1,22.9L1.1,22.9z M0,14.2
				c0-0.6,0.5-1.1,1.1-1.1h8.7c0.6,0,1.1,0.5,1.1,1.1v8.7c0,0.6-0.5,1.1-1.1,1.1H1.1C0.5,24,0,23.5,0,22.9C0,22.9,0,14.2,0,14.2z
				 M14.2,9.8c0,0,8.7,0,8.7,0c0,0,0-8.7,0-8.7c0,0-8.7,0-8.7,0C14.2,1.1,14.2,9.8,14.2,9.8z M13.1,1.1c0-0.6,0.5-1.1,1.1-1.1h8.7
				C23.5,0,24,0.5,24,1.1v8.7c0,0.6-0.5,1.1-1.1,1.1h-8.7c-0.6,0-1.1-0.5-1.1-1.1L13.1,1.1L13.1,1.1z M14.2,22.9c0,0,8.7,0,8.7,0
				c0,0,0-8.7,0-8.7c0,0-8.7,0-8.7,0C14.2,14.2,14.2,22.9,14.2,22.9L14.2,22.9z M13.1,14.2c0-0.6,0.5-1.1,1.1-1.1h8.7
				c0.6,0,1.1,0.5,1.1,1.1v8.7c0,0.6-0.5,1.1-1.1,1.1h-8.7c-0.6,0-1.1-0.5-1.1-1.1C13.1,22.9,13.1,14.2,13.1,14.2z"/>
		</g>
	</mask>
	<g style="mask:url(#action-grid-line-b);">
		<path style="fill:#111111;" d="M-12-12h48v48h-48V-12z"/>
	</g>
</g>
</svg>
